X:102
T:Humours of Ballyloughlin
R:jig
S:Tommy Keane Milltowm 1991
M:6/8
K:Dmix
~A3 AGE|GED (3DDDD|ccA ded|cBA FED|
~A3 AGE|~G3 cGE|~D3 DFA| ~D3 D3:||
|:c3 cBc|cAG AB^c|ded dfd|dcA DFA|
ccA dcB|cAG FGE|~D3 DFA| ~D3 D2B:||
|:fdd gdd|fdd ged|(3Bcde ged|(3Bcde ged|
fdd ged|fdd ged|(3Bcd e gag| ed^c d2e:||
|:~A2D A2G|~F3 FED|~E3 EFD|~E3 EFG|
~A3 dAG|~F3 GEA|~D3 DFA|~D3 D3:||
